!! 00010] TT[TB
!! Eigene Aufnahme
!!!OTL: Tao jinshang During the reward
!!!ARE: Neimeng
!! Ethnic Group: Menggu
!! MM, S. 825
!!!SCT: C0568
!!!YEM: Copyright 1995, estate of Helmut Schaffrath.
**kern
*ICvox
*Ivox
*M2/4
*k[]
*C:
{4.a
8a
=1
8dd
8cc
4a
=2
4.e
8e
=3
4c
4A}
=4
{4.a
8a
=5
8dd
8cc
8a
8g
=6
[2e
=7
2e]}
=8
{4.a
8a
=9
8dd
8cc
4a
=10
4.e
8e
=11
4c
4A}
=12
{4.d
8e
=13
4a
4c
=14
[2A
=15
2A]}
==
!!!AGN: NN
!! Saenger: Chao Lun Batou, der das Buch nur zum Nachschlagen
!!    benutzte und ansonsten auswendig sang. Da er aus dem Osten der
!!    Neimeng kommt, kennt er nicht so viele Lieder des Westens.
!!    Alle Lieder wurden mit erkaelteter, halber Stimme in meinem
!!    Zimmer gesungen. FOTO VORHANDEN (DIAS)  31.3.87
!!    Variante.
!!!ONB: ESAC (Essen Associative Code) Database: CHINA
!!!AMT: simple duple
!!!AIN: vox
!!!EED: Helmut Schaffrath
!!!EEV: 1.0
*-
!!!ONB: Tied note syntax fixed by Craig Sapp, 2004/05/03/
